svg/s/MW.svg

<svg width="16" height="12" viewBox="0 0 16 12" fill="none" xmlns="http://www.w3.org/2000/svg">
<g clip-path="url(#clip0_270_55068)">
<rect width="16" height="12" fill="white"/>
<path fill-rule="evenodd" clip-rule="evenodd" d="M0 0V12H16V0H0Z" fill="#E11C1B"/>
<mask id="mask0_270_55068" style="mask-type:luminance" maskUnits="userSpaceOnUse" x="0" y="0" width="16" height="12">
<path fill-rule="evenodd" clip-rule="evenodd" d="M0 0V12H16V0H0Z" fill="white"/>
</mask>
<g mask="url(#mask0_270_55068)">
<path fill-rule="evenodd" clip-rule="evenodd" d="M0 0V5H16V0H0Z" fill="#272727"/>
<path fill-rule="evenodd" clip-rule="evenodd" d="M0 8V12H16V8H0Z" fill="#5EAA22"/>
<path fill-rule="evenodd" clip-rule="evenodd" d="M2.00077 6.97294V6.97173L1.99609 6.97253L2.00077 6.97294ZM2.315 5.0634H2.36649L2.28757 5.05132L2.315 5.0634ZM3.77876 5.0634C3.80494 5.01308 3.83227 4.96331 3.86073 4.9141L2.716 4.15635L4.06619 4.59556C4.1417 4.48997 4.22266 4.38759 4.30874 4.28872L3.31653 3.34406L4.58095 4.00387C4.6737 3.9153 4.77092 3.83029 4.8723 3.74909L4.06985 2.64057L5.20312 3.50752C5.30855 3.43744 5.41751 3.37114 5.52975 3.30885L4.95176 2.06848L5.90908 3.11933C6.02317 3.06832 6.13999 3.02123 6.25931 2.97827L5.93389 1.64618L6.67516 2.84816C6.7945 2.81626 6.91588 2.78837 7.03907 2.76465L6.9847 1.38725L7.47777 2.69895C7.59951 2.68583 7.72271 2.67673 7.84717 2.67181L8.07041 1.3L8.29371 2.67221C8.41802 2.67735 8.54106 2.68666 8.66266 2.69998L9.15611 1.38725L9.10166 2.76654C9.22441 2.79041 9.34535 2.81843 9.46425 2.85043L10.2069 1.64618L9.88071 2.98154C9.99932 3.0245 10.1155 3.07155 10.2289 3.12247L11.1891 2.06848L10.609 3.31321C10.7204 3.37527 10.8285 3.44128 10.9331 3.51102L12.071 2.64057L11.2649 3.75409C11.3653 3.8348 11.4616 3.91925 11.5535 4.0072L12.8243 3.34406L11.8267 4.29385C11.9118 4.39195 11.9919 4.49348 12.0666 4.59816L13.4248 4.15635L12.273 4.91882C12.3004 4.96649 12.3269 5.01469 12.3522 5.0634H11.3697C10.6927 4.1249 9.45523 3.49659 8.04086 3.49659C6.62649 3.49659 5.38903 4.1249 4.71198 5.0634H3.77876ZM5.27978 5.0634C5.92123 4.40181 6.92842 3.97553 8.06095 3.97553C9.19348 3.97553 10.2007 4.40181 10.8421 5.0634H5.27978ZM13.7743 5.0634H13.8258L13.8532 5.05132L13.7743 5.0634ZM14.1408 6.97185L14.1447 6.97253L14.1408 6.97288V6.97185Z" fill="#E11C1B"/>
</g>
</g>
<defs>
<clipPath id="clip0_270_55068">
<rect width="16" height="12" fill="white"/>
</clipPath>
</defs>
</svg>

<svg width="16" height="12" fill="none" xmlns="http://www.w3.org/2000/svg">
  <mask id="a" maskUnits="userSpaceOnUse" x="0" y="0" width="16" height="12">
    <path fill="#fff" d="M0 0h16v12H0z"/>
  </mask>
  <g mask="url(#a)">
    <path fill-rule="evenodd" clip-rule="evenodd" d="M0 0v12h16V0H0z" fill="#E11C1B"/>
    <mask id="b" maskUnits="userSpaceOnUse" x="0" y="0" width="16" height="12">
      <path fill-rule="evenodd" clip-rule="evenodd" d="M0 0v12h16V0H0z" fill="#fff"/>
    </mask>
    <g mask="url(#b)" fill-rule="evenodd" clip-rule="evenodd">
      <path d="M0 0v5h16V0H0z" fill="#272727"/>
      <path d="M0 8v4h16V8H0z" fill="#5EAA22"/>
      <path d="M2 6.973v-.001h-.004.005zm.315-1.91h.051l-.078-.012.027.012zm1.464 0a3.1 3.1 0 01.082-.149l-1.145-.758 1.35.44c.076-.106.157-.208.243-.307l-.992-.945 1.264.66c.093-.089.19-.174.291-.255L4.07 2.641l1.133.867a4.78 4.78 0 01.327-.2l-.578-1.24.957 1.051c.114-.05.231-.098.35-.14l-.325-1.333.741 1.202c.12-.032.24-.06.364-.083l-.054-1.378.493 1.312a5.46 5.46 0 01.37-.027L8.07 1.3l.224 1.372c.124.005.247.015.369.028l.493-1.313-.054 1.38c.122.023.243.051.362.083l.743-1.204-.326 1.336c.118.042.235.09.348.14l.96-1.054-.58 1.245c.111.062.22.128.324.198l1.138-.87-.806 1.113c.1.08.197.165.288.253l1.271-.663-.997.95c.085.098.165.2.24.304l1.358-.442-1.152.763.08.144h-.983c-.677-.938-1.915-1.566-3.33-1.566-1.414 0-2.651.628-3.328 1.566h-.933zm1.5 0c.642-.661 1.65-1.087 2.782-1.087 1.132 0 2.14.426 2.781 1.087H5.28zm8.495 0h.052l.027-.012-.079.012zm.367 1.909h.004-.004z" fill="#E11C1B"/>
    </g>
  </g>
</svg>
